X: 308
T:Amoures et ma Dame aussi
C:Adam de la Halle
F:https://gallica.bnf.fr/ark:/12148/btv1b6001348v/f74.item
F:https://archive.org/details/oeuvrescompltes00cousgoog/page/n305
Z:Ali Corbin <ali.corbin:gmail.com>
N: (condensed)
M:3/4
L:1/4
Q:1/4=130
K:F Lydian
%
%%MIDI program 1       42 Cello
%%MIDI program 2       72 piccolo
%%MIDI program 3       70 bassoon
V:1 clef=treble
V:2 clef=treble_8
V:3 clef=treble_8
%
[V:1 ][K:C] C   (FG) | A   A2  |  G ((3:2:2A/GE)| F2   z  |   C   FG  | A2 (3A/G/F/|(3G/F/E/ DE  | F3  ||
[V:2 ][K:C] F    F2  | E  (ED) |(3E/D/C/  (A,B,)| C2   z  |   F   F2  | E  (ED)    |(3E/D/C/ B,2 | C3  ||
[V:3 ][K:F] F,   B,2 | A,  A,2 |  B,       A,2  | F,2  z  |   F,  B,2 | A,   A,2   |  G,     G,2 | F,3 ||
w:   1.4.8.~A-  mours  et  ma    Dame      aus-   si, 2.5.9.~Join-tes  mains vous     proi   mer-  chi.
w:   3.7.~Votre grant  bi- au-    té       mar    vi          ~    ~     ~    ~        ~      ~     ~
w:   6.~~~~Se    n'a-  vés pi-    té       de     mi          ~    ~     ~    ~        ~      ~     ~
W:
W:Amours et ma Dame aussi,       % My love and my lady, also, 
W:Jointes mains vous proi merchi.% With clasped hands I beg mercy of you. 
W:
W:Votre grant biauté mar vi      % Your great beauty ??? I saw 
W:
W:Amours et ma Dame aussi, 
W:Jointes mains vous proi merchi.
W:
W:
W:Se n'avés pité de mi           % If you have no pity for me 
W:
W:Votre grant biauté mar vi
W:
W:Amours et ma Dame aussi, 
W:Jointes mains vous proi merchi.


